X: 1
T: The Little Stack Of Wheat
R: hornpipe
M: 4/4
L: 1/8
K: Gmaj
|:BA|GEDE GABG|(3ABA GA (3Bcd ef|gedB GABG|dBAG E2BA|
GEDE GABG|(3ABA GA (3Bcd ef|gedB GABG|AGEF G2:|
(3Bcd|ed (3Bcd edgd|ed (3Bcd ~e3f|gedB GABG|dBAG E2 (3Bcd|
ed (3Bcd edgd|ed (3Bcd ~e3f|gedB GABG|AGEF G2 (3Bcd|
ed (3Bcd edgd|ed (3Bcd ~e3f|gedB GABG|dBAG E2BA|
GEDE GABG|(3ABA GA Bdef|gedB GABG|AGEF G2||


Tune 785	Setting 26641

